X:33
T:Black smiths Morris
M:4/4
L:1/4
Q:1/2=105
S:D.Wright, Extraordinary Collection, London 1713
Z:Pete Stewart, 2004 <www.hornpipemusic.co.uk>
K:G
Ad2e/f/ | ggf>e | d/e/f/g/ a g/f/ | eAd2 ||
dd/e/BG | A/B/c/d/ BG | c/d/e/c/ GG | ADG2 |]

